X:49 
T:Flaxdresser, The  
B:RC1.113
F:file ID roche.1/049flax
Z:bill@capeirish.com
Q:160
L:1/8
M:6/8
R:jig
K:G
A|BAG EGD|EGG GEG|BAG EGD|EAA ABc|
BAG EGD|EGG GEG|BAG EGD|EGG G2:|
z|GBd efg|edB BAG|GBd efg|def g3|
GBd efg|edB BAG|BAG EGD|EGG G2:|

